Infinity-Icons/Infinity-Light-Icons/status/24/auth-sim-locked.svg

<svg viewBox="0 0 24 24" xmlns="http://www.w3.org/2000/svg">
    <style type="text/css" id="current-color-scheme">
        .ColorScheme-Text {
            color:#232629;
        }
    </style><g transform="translate(1,1)">
    <g class="ColorScheme-Text" fill="currentColor">
        <path d="m5 3v16h8v-1h-4v-3h5v-1h-6.2929688l-1-1h-.7070312v-3h.7070312l1-1h6.5859378l1 1h.707031v2h1v-6.7070312l-2.292969-2.2929688zm2 2h1v3h-.7070312l-1.2929688 1.2929688v-3.2929688c0-.554.446-1 1-1zm2 0h4v3h-4zm5 0h1c.554 0 1 .446 1 1v3.2929688l-1.292969-1.2929688h-.707031zm-8 8.707031 1.2929688 1.292969h.7070312v3h-1c-.554 0-1-.446-1-1z"/>
        <path d="m16.5 13a1.5 1.5 0 0 0 -1.5 1.5v1.5h-1v3h5v-3h-1v-1.5a1.5 1.5 0 0 0 -1.5-1.5zm0 1a.5.5 0 0 1 .5.5v1.5h-1v-1.5a.5.5 0 0 1 .5-.5z" fill-rule="evenodd"/>
    </g>
</g></svg>

<svg xmlns="http://www.w3.org/2000/svg" viewBox="0 0 24 24" width="24" height="24">
  <style type="text/css" id="current-color-scheme">.ColorScheme-Text {color:#fcfcfc;}</style>
  <g transform="translate(1,1)">
    <g class="ColorScheme-Text" fill="currentColor">
      <path d="m 5,5 c 0,2 0,10 0,12 0,2 2,2 2,2 h 6 V 18 H 9 v -3 h 5 V 14 H 7.7070312 l -1,-1 H 6 v -3 h 0.7070312 l 1,-1 h 6.5859378 l 1,1 H 16 v 2 h 1 V 5.2929688 L 14.707031,3 7,3 C 7,3 5,3 5,5 Z M 7,5 H 8 V 8 H 7.2929688 L 6,9.2929688 V 6 C 6,5.446 6.446,5 7,5 Z m 2,0 h 4 V 8 H 9 Z m 5,0 h 1 c 0.554,0 1,0.446 1,1 V 9.2929688 L 14.707031,8 H 14 Z M 6,13.707031 7.2929688,15 H 8 v 3 H 7 C 6.446,18 6,17.554 6,17 Z"/>
      <path d="M 16.5,13 C 15.671573,13 15,13.671573 15,14.5 V 16 c 0,0 -1,0 -1,1 0,1 0,0 0,1 0,1 1,1 1,1 h 3 c 0,0 1,0 1,-1 0,-1 0,0 0,-1 0,-1 -1,-1 -1,-1 V 14.5 C 18,13.671573 17.328427,13 16.5,13 Z m 0,1 c 0.276142,0 0.5,0.223858 0.5,0.5 V 16 H 16 V 14.5 C 16,14.223858 16.223858,14 16.5,14 Z" fill-rule="evenodd"/>
    </g>
  </g>
</svg>
